src/icons/card-random.svg

<svg xmlns="http://www.w3.org/2000/svg" fill="none" viewBox="0 0 169 208">
  <g filter="url(#a)">
    <rect width="160" height="200" x="4.99829" y="-.00085449" fill="#3B185F" rx="8"/>
    <rect width="160" height="200" x="4.99829" y="-.00085449" fill="url(#b)" rx="8"/>
  </g>
  <path fill="#F5F5F5" fill-opacity=".08" d="M143.581 75.9152c3.125.0131 5.669 2.5571 5.682 5.6821l.109 26.6717c.021 5.004-6.05 7.553-9.643 3.96l-6.693-6.693-9.76 9.759c-.273.273-.6.487-.96.628-.36.14-.746.205-1.134.19l-24.3692-.942-.7122-18.4203 18.2294.7048 5.313-5.3125-6.693-6.6933c-3.589-3.5889-1.05-9.6637 3.96-9.6429l26.671.1084ZM31.0993 127.115l13.9453-13.945 18.2297.704-.7122-18.42-24.369-.9422c-.3878-.015-.7739.0499-1.1342.1907-.3603.1407-.6873.3544-.9604.6276l-18.392 18.3919c-1.1002 1.1-1.0927 2.892.0167 4.001l9.375 9.375c1.1094 1.11 2.9009 1.117 4.0011.017Zm61.7578-61.7578 6.6937 6.6938c3.5922 3.5926 9.6642 1.0439 9.6432-3.9607l-.109-26.6714c-.013-3.1252-2.557-5.6692-5.682-5.6821l-26.6712-.1085c-5.0107-.0209-7.5496 6.054-3.9609 9.6428l6.6933 6.6933-9.7592 9.7592c-.2732.2732-.4868.6001-.6275.9605-.1408.3603-.2057.7463-.1908 1.1341l2.9437 76.1368-13.9453 13.946c-1.1002 1.1-1.0927 2.891.0167 4.001l9.375 9.375c1.1094 1.109 2.9009 1.117 4.0011.017l18.392-18.392c.5522-.553.8484-1.311.8183-2.095l-2.9436-76.1373 5.3125-5.3125Z"/>
  <defs>
    <linearGradient id="b" x1="164.998" x2="4.99828" y1="-.00084686" y2="199.999" gradientUnits="userSpaceOnUse">
      <stop stop-color="#A12568"/>
      <stop offset="1" stop-color="#A12568" stop-opacity="0"/>
    </linearGradient>
    <filter id="a" width="168" height="208" x=".998291" y="-.00085449" color-interpolation-filters="sRGB" filterUnits="userSpaceOnUse">
      <feFlood flood-opacity="0" result="BackgroundImageFix"/>
      <feColorMatrix in="SourceAlpha" result="hardAlpha" values="0 0 0 0 0 0 0 0 0 0 0 0 0 0 0 0 0 0 127 0"/>
      <feOffset dy="4"/>
      <feGaussianBlur stdDeviation="2"/>
      <feComposite in2="hardAlpha" operator="out"/>
      <feColorMatrix values="0 0 0 0 0 0 0 0 0 0 0 0 0 0 0 0 0 0 0.25 0"/>
      <feBlend in2="BackgroundImageFix" result="effect1_dropShadow"/>
      <feBlend in="SourceGraphic" in2="effect1_dropShadow" result="shape"/>
    </filter>
  </defs>
</svg>

<svg width="169" height="208" viewBox="0 0 169 208" fill="none" xmlns="http://www.w3.org/2000/svg">
<g filter="url(#filter0_d)">
<rect x="4.99829" y="-0.000854492" width="160" height="200" rx="8" fill="#3B185F"/>
<rect x="4.99829" y="-0.000854492" width="160" height="200" rx="8" fill="url(#paint0_linear)"/>
</g>
<path d="M143.581 75.9152C146.706 75.9283 149.25 78.4723 149.263 81.5973L149.372 108.269C149.393 113.273 143.322 115.822 139.729 112.229L133.036 105.536L123.276 115.295C123.003 115.568 122.676 115.782 122.316 115.923C121.956 116.063 121.57 116.128 121.182 116.113L96.8128 115.171L96.1006 96.7507L114.33 97.4555L119.643 92.143L112.95 85.4497C109.361 81.8608 111.9 75.786 116.91 75.8068L143.581 75.9152ZM31.0993 127.115L45.0446 113.17L63.2743 113.874L62.5621 95.454L38.1931 94.5118C37.8053 94.4968 37.4192 94.5617 37.0589 94.7025C36.6986 94.8432 36.3716 95.0569 36.0985 95.3301L17.7065 113.722C16.6063 114.822 16.6138 116.614 17.7232 117.723L27.0982 127.098C28.2076 128.208 29.9991 128.215 31.0993 127.115ZM92.8571 65.3572L99.5508 72.051C103.143 75.6436 109.215 73.0949 109.194 68.0903L109.085 41.4189C109.072 38.2937 106.528 35.7497 103.403 35.7368L76.7318 35.6283C71.7211 35.6074 69.1822 41.6823 72.7709 45.2711L79.4642 51.9644L69.705 61.7236C69.4318 61.9968 69.2182 62.3237 69.0775 62.6841C68.9367 63.0444 68.8718 63.4304 68.8867 63.8182L71.8304 139.955L57.8851 153.901C56.7849 155.001 56.7924 156.792 57.9018 157.902L67.2768 167.277C68.3862 168.386 70.1777 168.394 71.2779 167.294L89.6699 148.902C90.2221 148.349 90.5183 147.591 90.4882 146.807L87.5446 70.6697L92.8571 65.3572Z" fill="#F5F5F5" fill-opacity="0.08"/>
<defs>
<filter id="filter0_d" x="0.998291" y="-0.000854492" width="168" height="208" filterUnits="userSpaceOnUse" color-interpolation-filters="sRGB">
<feFlood flood-opacity="0" result="BackgroundImageFix"/>
<feColorMatrix in="SourceAlpha" type="matrix" values="0 0 0 0 0 0 0 0 0 0 0 0 0 0 0 0 0 0 127 0" result="hardAlpha"/>
<feOffset dy="4"/>
<feGaussianBlur stdDeviation="2"/>
<feComposite in2="hardAlpha" operator="out"/>
<feColorMatrix type="matrix" values="0 0 0 0 0 0 0 0 0 0 0 0 0 0 0 0 0 0 0.25 0"/>
<feBlend mode="normal" in2="BackgroundImageFix" result="effect1_dropShadow"/>
<feBlend mode="normal" in="SourceGraphic" in2="effect1_dropShadow" result="shape"/>
</filter>
<linearGradient id="paint0_linear" x1="164.998" y1="-0.000846863" x2="4.99828" y2="199.999" gradientUnits="userSpaceOnUse">
<stop stop-color="#A12568"/>
<stop offset="1" stop-color="#A12568" stop-opacity="0"/>
</linearGradient>
</defs>
</svg>
